symbols/web/r_mobiledata/materialsymbolsoutlined/r_mobiledata_wght600_40px.svg

<svg xmlns="http://www.w3.org/2000/svg" height="40" width="40"><path d="M3.167 16.833V3.167H11.5q1.5 0 2.583 1.083 1.084 1.083 1.084 2.583v2.375q0 .875-.5 1.625t-1.709 1.042l2.209 4.958H11.5l-2-4.666H6.25v4.666Zm3.083-7.75h5.833V6.25H6.25Z"/></svg>

<svg xmlns="http://www.w3.org/2000/svg" height="40" width="40"><path d="M3.167 16.833V3.167H11.5Q13 3.167 14.083 4.25Q15.167 5.333 15.167 6.833V9.208Q15.167 10.083 14.667 10.833Q14.167 11.583 12.958 11.875L15.167 16.833H11.5L9.5 12.167H6.25V16.833ZM6.25 9.083H12.083Q12.083 9.083 12.083 9.083Q12.083 9.083 12.083 9.083V6.25Q12.083 6.25 12.083 6.25Q12.083 6.25 12.083 6.25H6.25Z"/></svg>
